Sources/FrostedUI/Resources/Icons.xcassets/calendar20.imageset/calendar-20.svg

<svg width="20" height="20" viewBox="0 0 20 20" fill="none" xmlns="http://www.w3.org/2000/svg" data-fui-icon="true">
  <path
    d="M13.25 1C13.6642 1 14 1.33579 14 1.75V3H15.6797C17.5133 3 19 4.48673 19 6.32031V15.6797C19 17.5133 17.5133 19 15.6797 19H4.32031C2.48673 19 1 17.5133 1 15.6797V6.32031C1 4.48673 2.48673 3 4.32031 3H6V1.75C6 1.33579 6.33579 1 6.75 1C7.16421 1 7.5 1.33579 7.5 1.75V3H12.5V1.75C12.5 1.33579 12.8358 1 13.25 1ZM2.5 15.6797C2.5 16.6848 3.31515 17.5 4.32031 17.5H15.6797C16.6848 17.5 17.5 16.6848 17.5 15.6797V8.5H2.5V15.6797ZM4.32031 4.5C3.31515 4.5 2.5 5.31515 2.5 6.32031V7H17.5V6.32031C17.5 5.31515 16.6848 4.5 15.6797 4.5H4.32031Z"
    fill="currentColor"
  />
</svg>

<svg xmlns="http://www.w3.org/2000/svg" width="20" height="20" fill="none" data-fui-icon="true" viewBox="0 0 20 20"><path fill="currentColor" d="M13.25 1a.75.75 0 0 1 .75.75V3h1.68A3.32 3.32 0 0 1 19 6.32v9.36A3.32 3.32 0 0 1 15.68 19H4.32A3.32 3.32 0 0 1 1 15.68V6.32A3.32 3.32 0 0 1 4.32 3H6V1.75a.75.75 0 0 1 1.5 0V3h5V1.75a.75.75 0 0 1 .75-.75M2.5 15.68a1.82 1.82 0 0 0 1.82 1.82h11.36a1.82 1.82 0 0 0 1.82-1.82V8.5h-15zM4.32 4.5A1.82 1.82 0 0 0 2.5 6.32V7h15v-.68a1.82 1.82 0 0 0-1.82-1.82z"/></svg>
